local/templates/main/img/svg/logo-text.svg

<svg width="132" height="14" viewBox="0 0 132 14" fill="none" xmlns="http://www.w3.org/2000/svg">
<path d="M11.8 1.72559H0.25V13.2756H3.77852V4.40746H11.8V1.72559Z" fill="white"/>
<path d="M21.914 7.70484C22.5781 7.70484 23.1031 7.68488 23.485 7.64308C23.867 7.60135 24.1568 7.52687 24.3543 7.41791C24.5519 7.29445 24.6723 7.13107 24.7155 6.92587C24.7719 6.70796 24.8002 6.42111 24.8002 6.06524V5.92181C24.8002 5.56773 24.772 5.28089 24.7155 5.06119C24.6723 4.84328 24.5538 4.67809 24.3543 4.56913C24.1567 4.44567 23.867 4.36394 23.485 4.32401C23.1031 4.28229 22.5801 4.26224 21.914 4.26224H17.7972V7.70313L21.914 7.70305V7.70484V7.70484ZM17.7972 13.2756H14.2749V1.72559H22.5292C23.7033 1.72559 24.6648 1.78003 25.4155 1.88898C26.1662 1.99793 26.7532 2.20312 27.1766 2.50269C27.6019 2.78954 27.8916 3.20539 28.0459 3.75195C28.2152 4.284 28.2999 4.98124 28.2999 5.84007V6.14697C28.2999 7.0076 28.2152 7.71031 28.0459 8.25687C27.8898 8.78892 27.6 9.20648 27.1766 9.50612C26.7514 9.80569 26.1644 10.0109 25.4155 10.1198C24.6666 10.2288 23.7033 10.2832 22.5292 10.2832H17.7972V13.2756V13.2756Z" fill="white"/>
<path d="M45.6251 13.2755H41.619L40.4688 11.2074L32.5882 11.2074L31.4596 13.2756L27.4751 13.2755L34.2703 1.72559H38.8083L45.6251 13.2755V13.2755ZM39.138 8.79066L36.5471 4.14235H36.4588L33.9131 8.79066H39.138V8.79066Z" fill="white"/>
<path d="M47.2749 13.2737V1.72559H56.9708C57.8867 1.72559 58.647 1.77276 59.252 1.86899C59.8719 1.96521 60.3644 2.12857 60.7315 2.36095C61.0967 2.57882 61.3589 2.87288 61.5125 3.24149C61.6679 3.61001 61.7447 4.06751 61.7447 4.61398C61.7447 5.42005 61.5968 6.01915 61.3008 6.41676C61.005 6.8125 60.5966 7.08488 60.076 7.23554V7.27726C60.7371 7.38619 61.2447 7.65303 61.5968 8.07607C61.9489 8.4991 62.1249 9.11996 62.1249 9.93874C62.1249 10.5941 62.0406 11.1405 61.8721 11.5763C61.7035 11.9993 61.4432 12.3406 61.0911 12.6002C60.739 12.8453 60.2951 13.0233 59.7595 13.1322C59.2238 13.2284 58.5908 13.2756 57.8585 13.2756H47.2749V13.2737V13.2737ZM57.2462 10.8174C57.7818 10.8174 58.147 10.7212 58.3437 10.5306C58.5553 10.3254 58.6602 10.0259 58.6602 9.6301C58.6602 9.21977 58.5553 8.92751 58.3437 8.74957C58.147 8.57162 57.7799 8.48273 57.2462 8.48273H50.7828V10.8174H57.2462ZM57.1618 6.27149C57.5289 6.27149 57.8098 6.19702 58.0065 6.04637C58.2182 5.89571 58.3231 5.61608 58.3231 5.20763C58.3231 4.7701 58.2182 4.47783 58.0065 4.3271C57.8098 4.17645 57.5271 4.10198 57.1618 4.10198L50.7828 4.10205V6.27336H57.1618V6.27149Z" fill="white"/>
<path d="M64.6001 13.2756H70.1295L77.399 4.63262H77.4868V13.2756H81.1001V1.72559H75.483L68.3014 10.3685L68.2349 10.3686V1.72566L64.6001 1.72559V13.2756Z" fill="white"/>
<path d="M91.5422 13.2756H87.9599V4.32572H82.75V1.72559H96.775V4.32572H91.5422V13.2756Z" fill="white"/>
<path d="M105.983 13.2744C104.821 13.2744 104.199 13.246 103.352 13.189C102.52 13.1453 101.81 13.0541 101.223 12.9099C100.635 12.7523 100.154 12.5397 99.78 12.2682C99.4213 11.9967 99.1409 11.6398 98.9405 11.1974C98.7401 10.755 98.6027 10.212 98.5322 9.57032C98.4596 8.92861 98.4253 8.15773 98.4253 7.25784V6.91607C98.4253 6.01618 98.4615 5.24531 98.5322 4.6036C98.6047 3.96189 98.7402 3.41886 98.9405 2.97654C99.1409 2.51897 99.4213 2.15632 99.78 1.88485C100.154 1.61337 100.633 1.4064 101.223 1.26402C101.81 1.12163 102.52 1.02859 103.352 0.98496C104.199 0.92804 104.821 0.899494 105.983 0.899494L106.542 0.899414C107.704 0.899414 108.321 0.927878 109.153 0.984881C110 1.02851 110.717 1.11968 111.305 1.26394C111.893 1.40632 112.366 1.61329 112.725 1.88477C113.099 2.15624 113.385 2.52076 113.585 2.97646C113.785 3.41886 113.923 3.96181 113.993 4.60351C114.066 5.24522 114.1 6.0161 114.1 6.91599V7.25776C114.1 8.15765 114.064 8.92853 113.993 9.57024C113.921 10.2119 113.785 10.7626 113.585 11.2182C113.385 11.6606 113.097 12.0175 112.725 12.289C112.366 12.5605 111.893 12.7674 111.305 12.9098C110.717 13.0522 110 13.1452 109.153 13.1889C108.321 13.2458 107.704 13.2743 106.542 13.2743L105.983 13.2744V13.2744ZM106.412 10.4702C107.46 10.4702 107.895 10.4417 108.485 10.3847C109.088 10.3278 109.532 10.1911 109.818 9.97846C110.12 9.75062 110.299 9.41456 110.356 8.97224C110.429 8.52984 110.463 7.92988 110.463 7.17425V6.98253C110.463 6.21174 110.427 5.60419 110.356 5.16179C110.299 4.70422 110.12 4.37012 109.818 4.15557C109.532 3.92772 109.088 3.78534 108.485 3.72646C107.897 3.66954 107.46 3.641 106.412 3.641H106.111C105.05 3.641 104.606 3.66946 104.018 3.72646C103.43 3.78338 102.986 3.92585 102.684 4.15557C102.398 4.37012 102.219 4.70422 102.146 5.16179C102.089 5.60419 102.06 6.21174 102.06 6.98253V7.17425C102.06 7.93176 102.089 8.52984 102.146 8.97224C102.219 9.41464 102.398 9.75062 102.684 9.97846C102.986 10.193 103.43 10.3278 104.018 10.3847C104.606 10.4417 105.05 10.4702 106.111 10.4702H106.412Z" fill="white"/>
<path d="M131.425 13.2756H127.906V8.81068H120.094V13.2756H116.575V1.72559H120.094V5.94357H127.906V1.72559H131.425V13.2756Z" fill="white"/>
</svg>

<svg width="132" height="14" viewBox="0 0 132 14" fill="none" xmlns="http://www.w3.org/2000/svg"><path d="M11.8 1.726H.25v11.55h3.529V4.407H11.8V1.726zm10.114 5.979c.664 0 1.19-.02 1.571-.062.382-.042.672-.116.87-.225a.75.75 0 00.36-.492c.057-.218.085-.505.085-.86v-.144c0-.354-.028-.641-.085-.86a.688.688 0 00-.36-.493c-.198-.123-.488-.205-.87-.245a15.317 15.317 0 00-1.571-.062h-4.117v3.441h4.117v.002zm-4.117 5.57h-3.522V1.726h8.254c1.174 0 2.136.055 2.887.164.75.109 1.337.314 1.76.614.426.287.716.702.87 1.249.17.532.254 1.23.254 2.088v.307c0 .86-.085 1.563-.254 2.11-.156.532-.446.95-.87 1.25-.425.299-1.012.504-1.76.613-.75.109-1.713.163-2.887.163h-4.732v2.993zm27.828 0H41.62l-1.15-2.068h-7.88l-1.13 2.069h-3.984l6.795-11.55h4.538l6.817 11.55zm-6.487-4.484l-2.59-4.649h-.09l-2.545 4.649h5.225zm8.137 4.483V1.726h9.696c.916 0 1.676.047 2.281.143.62.096 1.112.26 1.48.492.365.218.627.512.78.88.156.369.233.827.233 1.373 0 .806-.148 1.405-.444 1.803-.296.396-.704.668-1.225.819v.041c.661.11 1.169.376 1.52.8.353.422.529 1.043.529 1.862 0 .655-.084 1.201-.253 1.637a2.302 2.302 0 01-.78 1.024c-.353.245-.797.423-1.332.532a10.93 10.93 0 01-1.901.144H47.275v-.002zm9.971-2.457c.536 0 .901-.096 1.098-.286.211-.206.316-.505.316-.9 0-.411-.105-.703-.316-.881-.197-.178-.564-.267-1.098-.267h-6.463v2.334h6.463zm-.084-4.546c.367 0 .648-.074.845-.225.211-.15.316-.43.316-.838 0-.438-.105-.73-.316-.88-.197-.152-.48-.226-.845-.226h-6.38v2.171h6.38v-.002zm7.438 7.005h5.53l7.269-8.643h.088v8.643H81.1V1.726h-5.617l-7.182 8.642h-.066V1.727H64.6v11.55zm26.942 0H87.96v-8.95h-5.21v-2.6h14.025v2.6h-5.233v8.95zm14.441-.002c-1.162 0-1.784-.028-2.631-.085-.832-.044-1.542-.135-2.129-.28-.588-.157-1.069-.37-1.443-.64a2.725 2.725 0 01-.84-1.072c-.2-.442-.337-.985-.408-1.627a21.026 21.026 0 01-.107-2.312v-.342c0-.9.037-1.67.107-2.312.073-.642.208-1.185.409-1.627.2-.458.48-.82.839-1.092.374-.272.853-.479 1.443-.621.587-.142 1.297-.235 2.129-.279a34.154 34.154 0 012.631-.086h.559c1.162 0 1.779.029 2.611.086.847.044 1.564.135 2.152.279.588.142 1.061.35 1.42.62.374.272.66.637.86 1.092.2.443.338.986.408 1.628.073.641.107 1.412.107 2.312v.342c0 .9-.036 1.67-.107 2.312-.072.642-.208 1.193-.408 1.648-.2.443-.488.8-.86 1.071-.359.271-.832.478-1.42.62-.588.143-1.305.236-2.152.28-.832.057-1.449.085-2.611.085h-.559zm.429-2.804c1.048 0 1.483-.028 2.073-.085.603-.057 1.047-.194 1.333-.407.302-.227.481-.563.538-1.006.073-.442.107-1.042.107-1.798v-.191c0-.771-.036-1.379-.107-1.821-.057-.458-.236-.792-.538-1.006-.286-.228-.73-.37-1.333-.43-.588-.056-1.025-.085-2.073-.085h-.301c-1.061 0-1.505.028-2.093.085-.588.057-1.032.2-1.334.43-.286.214-.465.548-.538 1.006-.057.442-.086 1.05-.086 1.82v.192c0 .758.029 1.356.086 1.798.073.443.252.779.538 1.006.302.215.746.35 1.334.407.588.057 1.032.085 2.093.085h.301zm25.013 2.806h-3.519V8.81h-7.812v4.465h-3.519V1.726h3.519v4.218h7.812V1.726h3.519v11.55z" fill="#fff"/></svg>
